X: 61
T:Cymro o B'le
T:A Welshman from Whence
M:6/8
L:1/8
Q:130
C:Trad
S:Blodau'r Grug Collection Vol. 2
A:Wales
Z:brian_martin12345@yahoo.com
K:F
c3 cAc|F2A B2d|c3 cAc|G2A B2d|c3 cAc|F2A B2d|!fed cBA|G2A B2d:||
faf cAc|faf cAc|faf cBA|G2A B2d|!faf g2b|agf edc|fed cBA|G2A B2d:||c6||

